src/assets/sponsors2/Maker.svg

<svg fill="none" height="80" viewBox="0 0 564 80" width="564" xmlns="http://www.w3.org/2000/svg"><g fill="#1aab9b"><path d="m12 17.0331v61.9756h-12v-71.99597c0-5.77361 6.59592-9.06478 11.2091-5.59317l57 42.89494c1.7573 1.3224 2.7909 3.3939 2.7909 5.5931v29.1011h-12v-26.6061z"/><path d="m205.528 11.0087c-4.71 0-8.528 3.8181-8.528 8.5281v53.9182h11.074v-46.7139l14.93 24.3635c1.7 2.7737 4.719 4.4646 7.973 4.4646 3.245 0 6.259-1.6833 7.961-4.447l15.015-24.3811v46.7139h11.074v-54.3143c0-4.4912-3.64-8.132-8.132-8.132-2.884 0-5.553 1.5278-7.013 4.0153l-18.693 31.844-18.279-31.6012c-1.524-2.6353-4.338-4.2581-7.382-4.2581z"/><path clip-rule="evenodd" d="m316.172 11.0087c-3.659 0-6.947 2.2342-8.295 5.6362l-22.508 56.8101h10.722l6.988-16.3477h25.488l6.987 16.3477h11.382l-22.466-56.8051c-1.347-3.4046-4.636-5.6412-8.298-5.6412zm-.349 12.7881 8.877 23.1591h-17.798z" fill-rule="evenodd"/><path d="m376.902 39.6171 27.009-27.135c.939-.9432 2.215-1.4734 3.546-1.4734 4.462 0 6.692 5.3996 3.53 8.5479l-21.429 21.3349 31.596 32.5635h-14.37l-29.882-30.2344v30.2344h-11.075v-56.9092c0-3.0581 2.479-5.5371 5.537-5.5371 3.059 0 5.538 2.479 5.538 5.5371z"/><path d="m440.749 63.455c0 5.5228 4.477 10 10 10h28.716c2.815 0 5.097-2.2823 5.097-5.0977s-2.282-5.0977-5.097-5.0977h-27.598v-16.875h25.181c2.815 0 5.097-2.2823 5.097-5.0976 0-2.8154-2.282-5.0977-5.097-5.0977h-25.181v-14.9853h27.598c2.815 0 5.097-2.2823 5.097-5.0977 0-2.8153-2.282-5.0976-5.097-5.0976h-28.716c-5.523 0-10 4.4771-10 10z"/><path clip-rule="evenodd" d="m558.165 28.8944c0 1.9922-.249 3.8965-.747 5.7129-.468 1.7871-1.23 3.5156-2.285 5.1855-1.025 1.67-2.446 3.1641-4.263 4.4825-1.787 1.3183-3.911 2.3437-6.372 3.0761l18.853 26.1036h-14.414l-17.49-24.2139h-10.591v24.2139h-11.074v-52.4463c0-5.5229 4.477-10 10-10h16.587c1.318 0 2.519.0439 3.603.1318 1.113.0586 2.446.2344 3.999.5273 1.582.2637 2.974.6299 4.175 1.0987 1.23.4687 2.49 1.1572 3.779 2.0654 1.319.9082 2.403 1.9775 3.252 3.208.879 1.2012 1.597 2.7393 2.153 4.6143.557 1.8457.835 3.9258.835 6.2402zm-37.309-7.7344v17.8858h10.195c1.758 0 3.311-.0586 4.658-.1758 1.348-.1172 2.74-.3516 4.175-.7031 1.436-.3809 2.608-.8936 3.516-1.5381.937-.6445 1.699-1.5381 2.285-2.6807.615-1.1426.923-2.4902.923-4.0429 0-5.8301-4.497-8.7452-13.491-8.7452z" fill-rule="evenodd"/><path d="m139 79.0087v-61.9756l-47 35.3695v26.6061h-12v-29.1011c0-2.1992 1.0336-4.2707 2.7909-5.5931l57.0001-42.89494c4.613-3.47161 11.209-.18044 11.209 5.59317v71.99597z"/></g></svg>

<svg width="564" height="80" viewBox="0 0 564 80" fill="none" xmlns="http://www.w3.org/2000/svg">
<path d="M12 17.0331V79.0087H0V7.01273C0 1.23912 6.59592 -2.05205 11.2091 1.41956L68.2091 44.3145C69.9664 45.6369 71 47.7084 71 49.9076V79.0087H59V52.4026L12 17.0331Z" fill="#1AAB9B"/>
<path d="M205.528 11.0087C200.818 11.0087 197 14.8268 197 19.5368V73.455H208.074V26.7411L223.004 51.1046C224.704 53.8783 227.723 55.5692 230.977 55.5692C234.222 55.5692 237.236 53.8859 238.938 51.1222L253.953 26.7411V73.455H265.027V19.1407C265.027 14.6495 261.387 11.0087 256.895 11.0087C254.011 11.0087 251.342 12.5365 249.882 15.024L231.189 46.868L212.91 15.2668C211.386 12.6315 208.572 11.0087 205.528 11.0087Z" fill="#1AAB9B"/>
<path fill-rule="evenodd" clip-rule="evenodd" d="M316.172 11.0087C312.513 11.0087 309.225 13.2429 307.877 16.6449L285.369 73.455H296.091L303.079 57.1073H328.567L335.554 73.455H346.936L324.47 16.6499C323.123 13.2453 319.834 11.0087 316.172 11.0087ZM315.823 23.7968L324.7 46.9559H306.902L315.823 23.7968Z" fill="#1AAB9B"/>
<path d="M376.902 39.6171L403.911 12.4821C404.85 11.5389 406.126 11.0087 407.457 11.0087C411.919 11.0087 414.149 16.4083 410.987 19.5566L389.558 40.8915L421.154 73.455H406.784L376.902 43.2206V73.455H365.827V16.5458C365.827 13.4877 368.306 11.0087 371.364 11.0087C374.423 11.0087 376.902 13.4877 376.902 16.5458V39.6171Z" fill="#1AAB9B"/>
<path d="M440.749 63.455C440.749 68.9778 445.226 73.455 450.749 73.455H479.465C482.28 73.455 484.562 71.1727 484.562 68.3573C484.562 65.5419 482.28 63.2596 479.465 63.2596H451.867V46.3846H477.048C479.863 46.3846 482.145 44.1023 482.145 41.287C482.145 38.4716 479.863 36.1893 477.048 36.1893H451.867V21.204H479.465C482.28 21.204 484.562 18.9217 484.562 16.1063C484.562 13.291 482.28 11.0087 479.465 11.0087H450.749C445.226 11.0087 440.749 15.4858 440.749 21.0087V63.455Z" fill="#1AAB9B"/>
<path fill-rule="evenodd" clip-rule="evenodd" d="M558.165 28.8944C558.165 30.8866 557.916 32.7909 557.418 34.6073C556.95 36.3944 556.188 38.1229 555.133 39.7928C554.108 41.4628 552.687 42.9569 550.87 44.2753C549.083 45.5936 546.959 46.619 544.498 47.3514L563.351 73.455H548.937L531.447 49.2411H520.856V73.455H509.782V21.0087C509.782 15.4858 514.259 11.0087 519.782 11.0087H536.369C537.687 11.0087 538.888 11.0526 539.972 11.1405C541.085 11.1991 542.418 11.3749 543.971 11.6678C545.553 11.9315 546.945 12.2977 548.146 12.7665C549.376 13.2352 550.636 13.9237 551.925 14.8319C553.244 15.7401 554.328 16.8094 555.177 18.0399C556.056 19.2411 556.774 20.7792 557.33 22.6542C557.887 24.4999 558.165 26.58 558.165 28.8944ZM520.856 21.16V39.0458H531.051C532.809 39.0458 534.362 38.9872 535.709 38.87C537.057 38.7528 538.449 38.5184 539.884 38.1669C541.32 37.786 542.492 37.2733 543.4 36.6288C544.337 35.9843 545.099 35.0907 545.685 33.9481C546.3 32.8055 546.608 31.4579 546.608 29.9052C546.608 24.0751 542.111 21.16 533.117 21.16H520.856Z" fill="#1AAB9B"/>
<path d="M139 79.0087V17.0331L92 52.4026V79.0087H80V49.9076C80 47.7084 81.0336 45.6369 82.7909 44.3145L139.791 1.41956C144.404 -2.05205 151 1.23912 151 7.01273V79.0087H139Z" fill="#1AAB9B"/>
</svg>
